X:1
T:Title
%%score ( 1 2 ) ( 3 4 )
L:1/8
M:4/4
K:Db
V:1 treble nm="Choir Aahs, Staff"
V:2 treble 
V:3 bass nm="Choir Aahs, Staff-1"
V:4 bass 
V:1
 A2 A2- A/ z/ A [AB]2 | [Gc]2 [Fd]2 cB [FA]2 | z2 G2 z2 F2 | [DA]2 [Fd]2 cB [CA]2- | %4
w: By~H.~W.~Parker,~1894 * * * *||||
 [CA]2 A2 _c2 z c | [GB]2 [FA]2 [EG]2 [=DF]2 | z4 z2 .F2 | z2 B2 z4 | D4 z4 |] %9
w: |||||
V:2
 x8 | z4 G2 z2 | [FB]2 FE [EA]2 ED | z4 _F2 z2 | z4 z2 A2 | x8 | E2 [DF]2 [DG]2 C-[CE] | %7
 D2 ED [DB]2 [CA]2 | x8 |] %9
V:3
 A,2 A,2 [G,C]2 [F,D]2 | [E,E]2 [D,A,]2 [E,C]2 [F,D]2 | [B,,=D]2 [E,B,]2 [C,A,]2 [D,A,]2 | %3
 [C,F,]2 F,B, A,=G, [F,A,]2- | [F,A,]2 A,2 _C2 [F,E]2 | [B,=D]2 [B,,D]2 [E,B,]2 [F,B,]2 | %6
 [G,B,]2 [F,B,]2 [E,B,]2 A,G, | [B,,F,]2 G,F, E,F, [A,,G,]2 | [D,F,]4 z4 |] %9
V:4
 x8 | x8 | x8 | z2 B,,2 C,2 z2 | x8 | x8 | z4 z2 A,,2 | z2 G,,2 A,,2 z2 | x8 |] %9

